TileServer und Tiles/svg/9/44_1.svg

<?xml version='1.0' encoding='UTF-8' standalone='no'?>
<svg xmlns="http://www.w3.org/2000/svg" width="497pt" viewBox="0 0 497 279" xmlns:xlink="http://www.w3.org/1999/xlink" height="279pt">
 <defs style="stroke:none;" overflow="visible">
  <path id="glyph0-4" d="M 5 -3.78125 C 3.859375 -4.203125 3.1875 -5.234375 3.1875 -6.296875 L 3.1875 -6.390625 L 4.78125 -6.390625 L 4.78125 -7.046875 L 3.1875 -7.046875 L 3.1875 -8.125 L 2.40625 -8.125 L 2.40625 -7.046875 L 0.78125 -7.046875 L 0.78125 -6.390625 L 2.40625 -6.390625 L 2.40625 -6.296875 C 2.40625 -5.15625 1.734375 -4.0625 0.59375 -3.59375 L 1 -3 C 1.890625 -3.375 2.515625 -4.09375 2.796875 -4.96875 C 3.125 -4.15625 3.734375 -3.5 4.609375 -3.15625 Z M 2.0625 -1.578125 L 7.28125 -1.578125 L 7.28125 0.734375 L 8.09375 0.734375 L 8.09375 -2.25 L 2.0625 -2.25 Z M 7.3125 -8.21875 L 7.3125 -5.828125 L 6.1875 -5.828125 L 6.1875 -8.0625 L 5.40625 -8.0625 L 5.40625 -2.78125 L 6.1875 -2.78125 L 6.1875 -5.15625 L 7.3125 -5.15625 L 7.3125 -2.71875 L 8.09375 -2.71875 L 8.09375 -8.21875 Z M 7.3125 -8.21875 "/>
  <path id="glyph0-3" d="M 1.09375 -7.65625 L 1.09375 -6.984375 L 4.34375 -6.984375 C 4.1875 -5.46875 2.8125 -4.296875 0.625 -3.71875 L 0.953125 -3.0625 C 3.578125 -3.765625 5.234375 -5.375 5.234375 -7.65625 Z M 2.890625 -2.078125 L 7.078125 -2.078125 L 7.078125 -0.046875 L 2.890625 -0.046875 Z M 2.09375 0.609375 L 7.890625 0.609375 L 7.890625 -2.734375 L 2.09375 -2.734375 Z M 7.0625 -8.234375 L 7.0625 -3.15625 L 7.890625 -3.15625 L 7.890625 -8.234375 Z M 7.0625 -8.234375 "/>
  <path id="glyph0-2" d="M 3.703125 -7.453125 L 2.90625 -7.453125 L 2.90625 -5.84375 C 2.90625 -4.140625 1.8125 -2.421875 0.484375 -1.796875 L 0.984375 -1.125 C 2.046875 -1.65625 2.90625 -2.78125 3.3125 -4.125 C 3.734375 -2.84375 4.59375 -1.796875 5.625 -1.296875 L 6.109375 -1.953125 C 4.78125 -2.546875 3.703125 -4.203125 3.703125 -5.84375 Z M 7.046875 -8.234375 L 7.046875 0.765625 L 7.875 0.765625 L 7.875 -8.234375 Z M 7.046875 -8.234375 "/>
  <path id="glyph0-1" d="M 5.28125 -5.46875 L 5.28125 -4.796875 L 7.09375 -4.796875 L 7.09375 -1.53125 L 7.921875 -1.53125 L 7.921875 -8.21875 L 7.09375 -8.21875 L 7.09375 -5.46875 Z M 5.828125 -3.4375 C 4.5 -3.859375 3.59375 -4.90625 3.59375 -6.09375 L 3.59375 -6.375 L 5.5625 -6.375 L 5.5625 -7.03125 L 3.59375 -7.03125 L 3.59375 -8.1875 L 2.765625 -8.1875 L 2.765625 -7.03125 L 0.78125 -7.03125 L 0.78125 -6.375 L 2.765625 -6.375 L 2.765625 -6.09375 C 2.765625 -4.84375 1.875 -3.71875 0.546875 -3.265625 L 0.953125 -2.625 C 2.015625 -3 2.8125 -3.765625 3.1875 -4.75 C 3.59375 -3.84375 4.40625 -3.125 5.4375 -2.796875 Z M 3.015625 -0.125 L 3.015625 -2.125 L 2.1875 -2.125 L 2.1875 0.546875 L 8.171875 0.546875 L 8.171875 -0.125 Z M 3.015625 -0.125 "/>
  <path id="glyph0-0" d="M 1 1.203125 L 9 1.203125 L 9 -8.796875 L 1 -8.796875 Z M 5 -4.203125 L 1.8125 -8.296875 L 8.1875 -8.296875 Z M 5.3125 -3.796875 L 8.5 -7.890625 L 8.5 0.296875 Z M 1.8125 0.703125 L 5 -3.390625 L 8.1875 0.703125 Z M 1.5 -7.890625 L 4.6875 -3.796875 L 1.5 0.296875 Z M 1.5 -7.890625 "/>
 </defs>
 <image id="image20" width="497" xlink:href="svg/9/44_1.jpg" height="279"/>
 <g>
  <path d="m 46.699219,76.964844 v 0.671875 h 3.25 c -0.15625,1.515625 -1.53125,2.6875 -3.71875,3.265625 l 0.328125,0.65625 c 2.625,-0.703125 4.28125,-2.3125 4.28125,-4.59375 z m 1.796875,5.578125 h 4.1875 v 2.03125 h -4.1875 z m -0.796875,2.6875 h 5.796875 v -3.34375 h -5.796875 z m 4.96875,-8.84375 v 5.078125 h 0.828125 v -5.078125 z m 0,0" transform=" rotate(  340 59.4073 81.6197) " style="fill:none;stroke:#ffffff;stroke-width:3;stroke-linecap:butt;stroke-linejoin:round;stroke-miterlimit:10;stroke-opacity:0.6"/>
  <path d="m 59.808594,80.839844 c -1.140625,-0.421875 -1.8125,-1.453125 -1.8125,-2.515625 v -0.09375 h 1.59375 v -0.65625 h -1.59375 v -1.078125 h -0.78125 v 1.078125 h -1.625 v 0.65625 h 1.625 v 0.09375 c 0,1.140625 -0.671875,2.234375 -1.8125,2.703125 l 0.40625,0.59375 c 0.890625,-0.375 1.515625,-1.09375 1.796875,-1.96875 0.328125,0.8125 0.9375,1.46875 1.8125,1.8125 z m -2.9375,2.203125 h 5.21875 v 2.3125 h 0.8125 v -2.984375 h -6.03125 z m 5.25,-6.640625 v 2.390625 h -1.125 v -2.234375 h -0.78125 v 5.28125 h 0.78125 v -2.375 h 1.125 v 2.4375 h 0.78125 v -5.5 z m 0,0" transform=" rotate(  340 59.4073 81.6197) " style="fill:none;stroke:#ffffff;stroke-width:3;stroke-linecap:butt;stroke-linejoin:round;stroke-miterlimit:10;stroke-opacity:0.6"/>
  <path d="m 67.710938,77.167969 h -0.796876 v 1.609375 c 0,1.703125 -1.09375,3.421875 -2.421874,4.046875 l 0.5,0.671875 c 1.0625,-0.53125 1.921874,-1.65625 2.328124,-3 0.421876,1.28125 1.28125,2.328125 2.3125,2.828125 l 0.484376,-0.65625 c -1.328126,-0.59375 -2.40625,-2.25 -2.40625,-3.890625 z m 3.34375,-0.78125 v 9 h 0.828124 v -9 z m 0,0" transform=" rotate(  340 59.4073 81.6197) " style="fill:none;stroke:#ffffff;stroke-width:3;stroke-linecap:butt;stroke-linejoin:round;stroke-miterlimit:10;stroke-opacity:0.6"/>
  <g transform=" rotate(  340 59.4073 81.6197) " style="fill:#212121;fill-opacity:1">
   <use xlink:href="#glyph0-3" y="84.61972" x="45.607311"/>
   <use xlink:href="#glyph0-4" y="84.61972" x="54.807312"/>
   <use xlink:href="#glyph0-2" y="84.61972" x="64.007309"/>
  </g>
 </g>
</svg>

<svg xmlns="http://www.w3.org/2000/svg" xmlns:xlink="http://www.w3.org/1999/xlink" viewBox="0 0 497 279"> <defs overflow="visible" style="stroke:none">  <path id="b" d="M5-3.8c-1.1-.4-1.8-1.4-1.8-2.5h1.6V-7H3.2v-1.1h-.8v1H.8v.8h1.6A3 3 0 0 1 .6-3.6L1-3c.9-.4 1.5-1 1.8-2 .3.8 1 1.5 1.8 1.8ZM2-1.6h5.4V.7H8v-3H2Zm5.4-6.6v2.4H6.2v-2.3h-.8v5.3h.8v-2.4h1.1v2.5h.8v-5.5Zm-.1 0"/>  <path id="a" d="M1-7.7v.7h3.4C4.2-5.5 2.8-4.3.6-3.7l.4.6c2.6-.7 4.2-2.3 4.2-4.6ZM3-2h4v2H2.9ZM2 .6h5.9v-3.3H2Zm5-8.8v5h.9v-5Zm0 0"/>  <path id="c" d="M3.7-7.5h-.8v1.7C3-4.1 2-2.4.5-1.8l.5.7c1-.6 2-1.7 2.3-3 .4 1.3 1.3 2.3 2.3 2.8l.5-.7c-1.3-.5-2.4-2.2-2.4-3.8ZM7-8.2v9h1v-9Zm0 0"/>  <path d="M5.3-5.5v.7H7v3.3h.9v-6.7h-.8v2.7Zm.5 2C4.5-3.8 3.6-4.8 3.6-6v-.4h2V-7h-2v-1.2h-.8V-7h-2v.6h2v.4c0 1.2-1 2.3-2.3 2.7l.5.7C2-3 2.8-3.8 3.2-4.7c.4.8 1.2 1.6 2.2 1.8ZM3 0v-2.1h-.8V.5h6V0ZM1 1.2h8v-10H1Zm4-5.4L1.8-8.3h6.4Zm.3.4 3.2-4v8ZM1.8.7l3.2-4L8.2.6Zm-.3-8.6 3.2 4.1L1.5.3Zm0 0"/> </defs> <image xlink:href="svg/9/44_1.jpg" width="497" height="279"/> <path d="M46.7 77v.6h3.2c-.1 1.6-1.5 2.7-3.7 3.4l.4.6c2.6-.7 4.2-2.4 4.2-4.6zm1.8 5.5h4.2v2h-4.2zm-.8 2.7h5.8V82h-5.8zm5-8.8v5h.8v-4.9zm7.1 4.4c-1.1-.4-1.8-1.4-1.8-2.5h1.6v-.8H58v-1h-.8v1h-1.6v.8h1.6a3 3 0 0 1-1.8 2.7l.4.6c.9-.4 1.5-1 1.8-2 .4 1 1 1.6 1.8 2zm-3 2.2h5.4v2.4h.7v-3h-6zm5.4-6.6v2.4H61v-2.2h-.8v5.2h.8v-2.3h1.1v2.4h.9v-5.5zm5.5.8H67v1.6c0 1.7-1 3.4-2.5 4l.5.7c1-.5 2-1.7 2.3-3 .4 1.3 1.3 2.3 2.3 2.8l.5-.6c-1.3-.7-2.4-2.3-2.4-4zm3.4-.8v9h.8v-9zm-.1 0" style="fill:none;stroke:#fff;stroke-width:3;stroke-linecap:butt;stroke-linejoin:round;stroke-miterlimit:10;stroke-opacity:.6" transform=" rotate(  340 59.4073 81.6197) "/> <g style="fill:#212121;fill-opacity:1" transform=" rotate(  340 59.4073 81.6197) ">  <use xlink:href="#a" x="45.6" y="84.6"/>  <use xlink:href="#b" x="54.8" y="84.6"/>  <use xlink:href="#c" x="64" y="84.6"/> </g></svg>
